X:1
T:Title
%%score 1 { 2 | 3 }
L:1/8
Q:1/4=112
M:4/4
K:C
V:1 treble nm="Grand Piano, Soprano"
V:2 treble nm="Choir Pad, Aspen, Sanford Miller Brown"
V:3 bass 
V:1
 c3 c c2 G2 | A2 B2 c2 c2 | [FA]3 [FA] [EG]2 [CE]2 | [DF]2 [B,D]2 [CE]4 | c3 c c2 G2 | %5
w: By~Sanford~Miller~Brown,~1886 * * *|||||
 A2 B2 c2 A2 | [^Fd]3 [Fd] [Fd]2 [Fc]2 | [^FB]2 [FA]2 G4 | [Ge]3 [Fd] [Ec]2 [EG]2 | %9
w: ||||
 [FA]2 [FB]2 [Ec]2 [Gc]2 | [Gd]3 [Gd] [Gd]2 [Gd]2 | [Gc]2 [Gd]2 [Ge]4 | [Ge]3 [Fd] [Ec]2 [EG]2 | %13
w: ||||
 [FA]2 [FB]2 [Ec]2 [Ge]2 | [Fd]3 [Fd] [Fd]2 [Af]2 | [Ge]2 [Fd]2 [Ec]4- | [Ec]4 z4 |] %17
w: ||||
V:2
 C3 C C2 G,2 | A,2 B,2 C2 C2 | C3 C C2[K:bass] G,2 | G,2 G,2 G,4 | C3 C C2 G,2 | A,2 B,2 C2 A,2 | %6
 A,3 A, A,2[K:treble] D2 | D2 C2 B,4 | C3 C C2 C2 | C2 C2 C2 C2 | B,3 B, B,2 B,2 | %11
 C2 B,2[K:treble] C4 | C3 C C2 C2 | C2 C2 C2 C2 | A,3 A, A,2 A,2 | C2 B,2[K:treble] C4- | C4 z4 |] %17
V:3
 z8 | z4 z2 C,2 | F,3 F, C,2 C,2 | G,,2 G,,2 C,4 | z8 | z8 | D,3 D, D,2 D,2 | D,2 D,2 G,4 | %8
 C,3 C, C,2 C,2 | F,2 F,2 C,2 E,2 | G,3 G, G,2 G,2 | E,2 G,2 z4 | C,3 C, C,2 C,2 | %13
 F,2 F,2 C,2 C,2 | F,3 F, F,2 D,2 | G,2 G,,2 C,4- | C,4 z4 |] %17

